X:265
T:Clay Braes
C:Joe Buchanan's Scottish Tome - Page 310.0
I:310 0
Z:Carl Allison
C:Lindsay Ross
R:Jig
L:1/8
M:6/8
K:F
"F"FGF FEF | "C7"GAG "F"F2 A | "Bb"Bcd "F"cBA | "G7"AGF "C7"G2 C |
"F"FGF FEF | "C7"GAG "F"F2 A | "Bb"Bcd "C7"cde |"F" f3 f3 :|
e/f/ |"F" age fga |"C"gec c3 |  "Dm"f3 def |"Am"  ecA A3 |
"Bb"dcB Bcd | "F"cAF F2 A | "G7"GAG Ggf | "C7"edc BAG |
"F"FGF FEF |"C7" GAG "F7"F2 A "Bb"| Bcd "F"cBA |"G7" AGF "C7"G2 C |
"F"FGF FEF |"C7" GAG "F7"F2 A "Bb"| Bcd "C7"cde |"F" f3 f |]
